!!!OTL: Yaoqiu jiefang xu geming
!!!ARE: Asia, China, Fujian Yongding
!! II, 592
!!!SCT: C2013
!!!YEM: Copyright 1995, estate of Helmut Schaffrath.
**kern
*ICvox
*Ivox
!! Mixed meters:  2/4; 3/4
*M3/4
*k[f#c#]
*D:
{8ff#
8ff#
16ee
16ff#
4ee
16ff#
16ee
=1
8dd
16ee
16ff#
16ee
16dd
4.b}
=2
*M2/4
{8dd
4ee
16ee
16ee
=3
8dd
16ee
16ff#
16ee
16ff#
16ee
16dd
=4
2b}
=5
{8dd
16ee
16ff#
4ee
=6
8b
16dd
16ee
4dd}
=7
{8b
8b
8dd
16b
16dd
=8
4.ee
16ff#
16ee
=9
*M3/4
8dd
16ee
16ff#
16ee
16dd
4.b
=10
*M2/4
16dd
16b
4.ee
=11
2dd}
=12
{8b
8b
8dd
16b
16dd
=13
4.ee
16ff#
16ee
=14
8dd
16ee
16ff#
16ee
16dd
16b
16a
=15
2b}
==
!!!AGN: Shange, Xiayang shange
!!!AMT: irregular
!!!AIN: vox
!!!EED: Helmut Schaffrath
!!!EEV: 1.0
*-
